!!!OTL: Frisch auf Soldatenblut (147), S. 326
!!!id: T0316
**kern
*clefG2
*k[f#c#g#]
*A:
{4e
=1
4a
4e
4c#
8e
8a
=2
2a}
4r
=3
{8cc#
8dd
=4
4ee
4ee
4dd
4g#
=5
4a}
4r
=6
{4cc#
4cc#
=7
4ee
4cc#
4cc#
8b
8cc#
=8
4dd}
=9
{4b
4a
8a
8a
=10
4cc#
4a
4a
8g#
8a
=11
4b}
4r
=12
{4.f#
8g#
=13
4a
8g#
8f#
8e
8e
8e
8d
=14
2c#}
4r
=15
{8cc#
8dd
=16
4ee
4ee
4dd
4g#
=17
2a}
4r
==
*-
!!!minrhy: 8
!!!meters: 4/4 ]  ZZ[6
!!!cut: Frisch auf Soldatenblut (147), S. 326
!!!reg: Luxemburg
!!!trd: Singendes Volk, Esch-Alzette 1937, posth.
!!!rhy1: X_  X_X_X_XX  X__0_
!!!rhy2: XX  X_X_X_X_  X_0_
!!!key: T0316  08  A 4/4 ]  ZZ[6
!!!mod: HEPTATONIK IONISCH]  AMBITUS[10b
!!!kad: 1142-31
!!!akz: 1-31_541_3534_1312_-61-5-3_541_
!!!fot: 'a__b__c__cs'd__b__
!!!for: 'a__b__av_av_c__bv_
!!!fok: '~a_^d_~a_V__^d_^d_
!! PHRAS[AUFTAKTIG]
!!!fkt: historische, Kriegs- und Soldatenlieder
!!!bem: Junglinster, hhh Jakob Santer, 26.6.1934
!! THILL, Mathias:
!! PR[44] 2K[0] 2G[4] 3K[6] 3G[0] 4A[4] 4Ü[0] 5A[6] 6K[0] 6G[0]
!! 7K[0] 7G[0] 8A[0] MEHR[0] SI[19] ABS[54] SR[4] SP[15]
!! ST[11] 2k[4] 2g[22] 3k[11] 3g[0] 4d[0] 4ü[0] 5d[0] 6k[0] 6g[0]
!! 7k[0] 7g[0] 8d[0] mehr[0] si[37] dm[-18] sr[26] sp[11]
!! 1F[3] 2F[87] 3F[8] 4F[0] LF[0] 2P[0] 3P[2] 4P[0] TRI[0] DF[4] AB[60]
!! TF[0] U3K[0] U3[0] U4[0] U4Ü[0] U5[0] U6K[0] U6[0] U7K[0] U7[0]
!! N1[4] N2K[0] N2[5] N3K[0] N3[5] N4[9] N4Ü[0] N5[53] N6K[0] N6[16]
!!!n7k: 0] N7[4] O1[4] O2K[0] O2[0] O3K[0] O3[0] HÖ[0
